X: 26327
T: Men Of The West, The
R: waltz
M: 3/4
K: Gmajor
|:D2|G4 F>G|B2 (3ABA G2|d6|e2- e>f g2|d2- d>c B>A|(3GAG A2 F2|E6|F4 (3DEF|
G2- G>D G2|B2 A2 G2|d2- d>G d2|e4 d>c|B4 G2|A4 G>A|G6-|G4:|
|:B>c|d4 e>d|d2 B2 d2|e4 c2|g4 d2|B4 A2|G2 F2 D2|E6|F4 D2|
G2- G>A G2|B2 A2 (3GAG|d2- d>G d2|e4 d>c|B4 G2|A2- A>^G A2|G6-|G4:|

